X:1
T:Dance Scene (Arrival of the Drosselmayer)
T:Dance Scene (Arrival of the Drosselmayer)
T:The Nutcracker, Piano Arrangement for 3 hands
T:Hinci
C:Hinci
%%score { ( 1 6 ) | ( 2 5 ) | ( 3 4 ) }
L:1/8
Q:1/4=88
M:4/4
K:C
V:1 treble nm="Piano" snm="Pno."
V:6 treble 
V:2 bass 
V:5 bass 
V:3 bass 
V:4 bass 
V:1
"^Andantino" z6 z/4!mf! (A,/4B,/4C/4D/4E/4^F/4G/4) | %1
 .A z .B, z{/E} .D/.C/B,- B,/4(A,/4B,/4C/4D/4E/4^F/4G/4) | %2
 .A z .B, z{/E} .D/.C/B,- B,/4(A,/4G,/4A,/4B,/4C/4D/4E/4) | .^F.B, B,2- B,{/B,}A, (3(B,F).F | %4
 .^F.B, B,2- B,{/D}.C .B,/D/.D/.D/ | .D.G, G,2- G,{/G,}.^F, (3(G,D).D | %6
 .D.G, G,2- G,{/_B,}._A,!<(! G,/.C/.C/.C/!<)! |!f! .B, z!ff! .A, z D4-[Q:1/4=84][Q:1/4=80] | %8
 D8-[Q:1/4=76][Q:1/4=73] | D8- | D6-!p![Q:1/4=88] D/ z/ z | z2 (!>![_B_b]>[Aa]) [Gg]-[Gg] z2 | %12
 z2 (!>![_B_b]>[Aa]) [Gg]-[Gg] z2 | z2 (!>![_B_b]>[Aa]) (!>![Gg]>[^F^f]) (!>![Ee]>[Dd]) | %14
 (!>![Cc]>[B,B]) (!>![Gg]>[^F^f]) (!>![Ee]>[Dd]) (!>![Dd]>[Cc]) | %15
[Q:1/4=90] !>![B,B]>[A,A][Q:1/4=93] G!p![C,C][Q:1/4=96] (6:4:6[C,C][C,C][C,C][Q:1/4=100][C,C][C,C][C,C][Q:1/4=103] | %16
 !>![B,B]>[Q:1/4=105][A,A] G[Q:1/4=108]!p!C (6:4:6[C,C][C,C][C,C][C,C][C,C][C,C][Q:1/4=110][Q:1/4=112] | %17
[K:bass] [G,B,][G,B,][G,C][Q:1/4=119][G,C] [G,B,][G,B,][Q:1/4=124][G,C][G,C][Q:1/4=114] | %18
[Q:1/4=144]"^Allgero vivo." z4[K:treble] z2 .[Bb] z | %19
 .[ee'] z (5:4:5(g'/a'/g'/a'/g'/ [^f^f']) z .[ee'] z | .[^f^f'] z .[dd'] z (!>![Bb]3 [Bb]) | %21
"_cresc." ([Aa-]4 a/b/a/b/ a/b/a/b/) | ((c'4 b2))!mp! (B/d/).g/.b/ | %23
 !tenuto!d'2 (d/g/).b/.d'/ !tenuto!e'2 (e/g/)._b/.e'/ | %24
 .d'/.e'/.d'/.e'/ .d'/.e'/.d'/.e'/ !tenuto!b2!<(! (B/d/).g/.b/ | %25
 !tenuto!d'2 (d/g/).b/.d'/ !tenuto!e'2 (e/g/).b/!<)!!mf!!>(!.e'/ | %26
 ^f'2- f'/.^f/.f'/.f/ .f'!>)!!p!f/ z/ .[^Ff] z | %27
 .[Bb] z (5:4:5(d'/e'/d'/e'/d'/ .[^c^c']) z .[Bb] z | .[^c^c'] z .[Aa] z (!>![^F^f]3 [Ff]) | %29
"_cresc." ([Ee-]4 e/^f/e/f/ e/f/e/f/) | (g4 ^f) z!mp! (^F/A/).d/.f/ | %31
 !tenuto!a2 (A/d/).^f/.a/ !tenuto!b2 (B/d/).=f/.b/ | %32
 .a/.b/.a/.b/ .a/.b/.a/.b/ !tenuto!^f2!<(! (^F/A/).d/.f/ | %33
 !tenuto!a2 (A/d/).^f/.a/ !tenuto!b2 (B/d/).f/!<)!!mf!!>(!.b/ | %34
 ^c'2- c'/.^c/.c'/.c/!>)!!p! .c'.c c/c/c/c/ | %35
 (^f/e/).d/.^c/ .c/.c/.c/.c/ (f/e/).d/.c/ .B/.B/.B/.B/ | %36
 (^f/e/).d/.^c/ .B/.B/.B/.B/ (f/e/).d/.c/ .c/.c/.c/.c/ | %37
 (^f/e/).d/.^c/ .c/.c/.c/.c/ (f/e/).d/.c/ .B/.B/.B/.B/ | %38
 (^f/e/).d/.^c/ .B/.B/.B/.B/ (f/e/).d/.c/!p!"_cresc." .c/.c/.c/.c/ | %39
 (^f/e/).d/.^c/ .c/.c/.c/.c/ (f/e/).d/.c/ .B/.B/.B/.B/ | %40
 (^f/e/).d/.^c/ .B/.B/.B/.B/ (f/e/).d/.c/ .c/.c/.c/.c/ | %41
 (^f/e/).d/.^c/ .c/.c/.c/.c/ (f/e/).d/.c/ .B/.B/.B/.B/ | %42
 (^f/e/).d/.^c/ .B/.B/.B/.B/!ff! .[^F,^F] z .F, z | %43
[Q:1/4=80]"^Andantino sustenuto" z4 z2 z/4!f! (A,/4B,/4C/4D/4E/4^F/4G/4 | %44
 !>!A) z !>!B, z{/E} .D/.C/!>!B,- B,/4(!>!A,/4B,/4C/4D/4E/4^F/4G/4 | %45
 !>!A) z !>!B, z{/E} .D/.C/!>!B,- B,/4(A,/4G,/4A,/4B,/4C/4D/4E/4 | %46
 !>!^F)!>!B, !>!B,2- B,{/B,}A, (B,.F/).F/ | !>!^F!>!B, !>!B,2- B,{/D}C (B,/.D/).D/.D/ | %48
 !>!D!>!G, !>!G,2- G,{/G,}^F, (G,.D/).D/ | !>!D!>!G, !>!G,2- G,{/_B,}_A, (G,/C/).C/.C/ | %50
 !>!B,!>!A, z/ !>!C/!>!C/!>!C/ !>!B,!>!A, z/ !>!C/!>!C/!>!C/ | %51
 !>!B,/!>!A,/!>!G,/!>!^F,/ !>!E,/!>!D,/!>!C,/!>!B,,/ !>!A,,/!>!B,,/!>!C,/!>!E,/ !>!D, z | %52
!ff!"_rit."[Q:1/4=76] [_B,_B]4[Q:1/4=68] [A,A]2- [A,A] !fermata!z | %53
[Q:1/4=72]!p!"^Più andante."!<(! [Bd]/[B^f]/[Bf]/[Bf]/ [Bf]/[Bf]/[Bf]/!<)!!mf![Bf]/!>(! [ce]/[ce]/[ce]/[ce]/ [ce]/[ce]/[ce]/!>)!!p![ce]/ | %54
!<(! [Bd]/[B^f]/[Bf]/[Bf]/ [Bf]/[Bf]/[Bf]/!<)!!mf![Bf]/!>(! [ce]/[ce]/[ce]/[ce]/ [ce]/[ce]/[ce]/!>)!!p![ce]/ | %55
!<(! [Bd]/[Bd]/[Bd]/[Bd]/ [Bd]/[Bd]/[Bd]/!<)!!mf![Bd]/!>(! [B^c]/[Bc]/[Bc]/[Bc]/ [Bc]/[Bc]/[A=c]/!>)!!p![Ac]/ | %56
!<(! [Ac]/[Ac]/[Ac]/[Ac]/ [Ac]/[Ac]/[Ac]/!<)!!mf![Ac]/!>(! [AB]/[AB]/[AB]/[AB]/ [AB]/[AB]/[G_B]/!>)!!p![GB]/ | %57
!<(! !//![G_B]2!<)!!mf! !//![GA]2!>(! !//![GB]2!>)!!p! !//![GA]2 | %58
!<(! !//![FA]2!<)!!mf! !//![F^G]2!>(! !//![FA]2!>)!!p! !//![FG]2 | G^G-G(A _B)=B-B(c | %60
 ^c)d-d(^d e)f ([A-a]2 | [Aa-]4 (5:4:5a/4_b/4=b/4c'/4_d'/4(5:4:5=d'/4_d'/4c'/4b/4_b/4) (a2- | %62
 a4- (5:4:5a/4_b/4=b/4c'/4_d'/4(5:4:5=d'/4_d'/4c'/4b/4_b/4) a2- | a6 (3aaa | e8- | %65
 e4- e z !fermata!z2 ||[M:3/4][Q:1/4=160]"^Allegro molto vivace."!p! E z/ (E/ !>!^F,4) | %67
{/A,} ^G, z/ (=G,/ !>!^G,4) | E z/ (E/ !>!^F,4) |{/A,} ^G, z/ (=G,/ !>!^G,4) | %70
"_cresc." E z/ (E/ A,2) ^F z/ (F/ | E2) ^G z/ (G/ D2) | A z/ (A/ C) z/ (E/ ^F) z/ (A/ | %73
!f!!>(! c) z/ (B/ E2- E)(G/F/!>)! |!p! E) z/ (E/ !>!^F,4) |{/A,} ^G, z/ (=G,/ !>!^G,4) | %76
 E z/ (E/ !>!^F,4) |{/A,} ^G, z/ (=G,/ !>!^G,4) |"_cresc." E z/ (E/ !>!_G,2) ^F z/ (F/ | %79
 !>!_A,2) ^G z/ (G/ !>!A,2) | A z/ (^G/ ^F) z/ (E/ F) z/ (A/ |!f! ^G) z _A,4 | %82
!p!!<(! [Aa] z/ (b/ [cc']7/2) (b/ | [Aa]) z/ (b/ [cc']7/2) (b/ | [Aa]) z/ (b/ [cc']7/2) (b/!<)! | %85
!mf! [Aa]) z [Gg]4 |!p!!<(! [Aa] z/ (b/ [cc']) z/ (d'/ [cc']) z/ (b/ | %87
 [Aa]) z/ (b/ [cc']) z/ (d'/ [cc']) z/ (b/ | [Aa]) z/ (b/ [cc']) z/ (d'/ [cc']) z/ (b/!<)! | %89
!mf! [Aa]) z [Gg]4 |"^Allegro molto vivace."!mp! E z/ (E/ !>!^F,4) |{/A,} ^G, z/ (=G,/ !>!^G,4) | %92
 E z/ (E/ !>!^F,4) |{/A,} ^G, z/ (=G,/ !>!^G,4) | %94
"^Molto più presto."[Q:1/4=172]!<(! .[E,B,E]2 .[^F,^F]2[Q:1/4=180] .[G,DG]2 | %95
 .[^G,^D^G]2[Q:1/4=184] .[A,EA]2 .[B,^FB]2 | .[CGc]2[Q:1/4=188] .[DAd]2 .[^D^A^d]2 | %97
 .[EBe]2!<)!!ff! .[EBe]2 !fermata!z2 ||[K:A][Q:3/4=56]"^Tempo di Valse"!mp!!<(! E4 (F2- | F>E) D4 | %100
 E4 (F2- | F>E) D4!<)! |!f! E4!>(! A2- | A2 (G2 F2) | (E2 D2) (C2 | B,2) (^A,2!>)! B,2) | %106
!mp! E4 (F2- | F>E) D4 | E4 (^^F2- | F>^F) E4 |"_cresc." F4 c2- | c2 !tenuto!B2 !tenuto!A2 | %112
 !tenuto!G2 !tenuto!F2 !tenuto!E2 | (^D4 E) z |!ff! ([FA][Af]) .[Af].[Af] .[Af].[Bg] | %115
 ([Ge-]2 e>g) ([Ge-]2 | e>g) ([Ge-]2 e>g) | ([Ge]4 [ca]2) | %118
!mp! ([F,A,][F,D]) .[F,D].[F,D] .[F,D].[D,B,] | ([A,C-]2 C>D) ([A,C-]2 | C>D) ([A,C-]2 C>D) | %121
 ([A,C]4 [G,B,]) z |!f! ([FA][Af]) .[Af].[Af] .[Af].[Bg] | ([Ge-]2 e>g) ([Ge-]2 | %124
 e>g) ([Ge-]2 e>g) | ([Ge]4 [ca]2) |!mf! ([CE][EA]) .[EA].[GB] .[EA].[GB] | ([Ac-]2 c>e) ([Ac-]2 | %128
 c>e) ([Ac-]2 c>e) | ([G^B]4 [Ac]) z |!p!!<(! .[Ac].[CA] .[CA].[Ac] .[Ac].[CA] | %131
 .[Gd].[DG] .[DG].[Gd] .[Gd].[DG] | .[Ac].[CA] .[CA].[Ac] .[Ac].[CA] | %133
 .[Bd].[DB] .[DB].[Bd] .[Bd].[DB]!<)! |!mp!!>(! .[Ac].[CA] .[CA].[Ac] .[Ac].[CA] | %135
 .[Bd].[DB] .[DB].[Bd] .[Bd].[DB] | .[Bf].[FB] .[FB].[Bf] .[Bf].[FB] | %137
 .[dg].[Gd] .[Gd].[dg] .[dg].[Gd]!>)! |!p! .[ca].[Ac] .[Ac].[ca] .[ca].[Ac] | %139
 .[dg].[Gd] .[Gd].[dg] .[dg].[Gd] | .[ca].[Ac] .[Ac].[ca] .[ca].[Ac] | %141
 .[Ba].[AB] .[AB].[Ba] .[Ba].[AB] |"_cresc." .[^Ba].[AB] .[AB].[Ba] .[Ba].[AB] | %143
 .[ca].[Ac] .[Ac].[ca] .[ca].[Ac] | .[dg].[Gd] .[Gd].[dg] .[dg].[Gd] | %145
 .[ca].[Ac] .[Ac].[Ae] .[Ae].[EA] |!mf! ([ge'][d'f']) ([d'f'][ge']) ([ge'][d'f']) | %147
 ([c'f'][ae']) ([ae'][c'f']) ([c'f'][ae']) | ([ge'][d'f']) ([d'f'][ge']) ([ge'][d'f']) | %149
!>(! ([c'f'][ae']) ([ad']c') ([eb]!>)![ca]) |!p! ([Ge][df]) ([df][Ge]) ([Ge][df]) | %151
"^rit."[Q:3/4=55] ([cf][Ae])[Q:3/4=54] ([Ae][cf])[Q:3/4=53] ([cf][Ae]) | %152
[Q:3/4=52] ([Ge][Q:3/4=51][df])[Q:3/4=50] ([df][Q:3/4=49][Ge])[Q:3/4=47] ([Ge][Q:3/4=45][dg] | %153
[Q:3/4=43] [ca]) z z2 !fermata!z2 ||[M:2/4][Q:1/4=168]"^Presto"[Q:1/4=168]!p!!p! [Ac]4- | [Ac]4 | %156
 [FA]4- | [FA]4 | ([DF]4 | [B,D]4 | [F,B,]4 | [D,F,]4) | [A,C]4- | [A,C]4 | [F,A,]4- | [F,A,]4 | %166
 ([D,F,]4 | [B,,D,]4 | [F,,B,,]4 | [D,,F,,]4) | [G,,,D,,]4- | [G,,,D,,]4- | [G,,,D,,]4- | %173
 [G,,,D,,]4 | [G,,,B,,,]4- | [G,,,B,,,]4- | [G,,,B,,,]4- | [G,,,B,,,]4 | [A,,,C,,]4- | %179
 [A,,,C,,]4- | [A,,,C,,]4- | [A,,,C,,]4 | F,, C,,2 F,,- | F,,.G,, !tenuto!A,,2 | .A,, F,,2 G,,- | %185
 G,,A,, !tenuto!F,,2 |"_cresc." (B,,/F,,/B,,) (C,/F,/C,) | (D,/G,,/D,) (F,/A,/F,) | %188
 (A,/C/A,/C/) (A,/C/A,/C/) | (=G,/B,/G,/!mf!B,/)!>(! (A,/^G,/F,/^E,/)!>)! | .F, C,2 F,- | %191
 F,.G, !tenuto!A,2 | .A, F,2 G,- | G,.A, !tenuto!F,2 | (B,/F,/B,) (C/F/C) | (G,/D,/G,) (A,/C/A,) | %196
 (F,/A,/F,/A,/) (^A,,/F,/A,,/F,/) | (G,,/C,/G,,/C,/) (F,,/G,,/A,,/C,/) |!mp! .F C2 F- | %199
 F.G !tenuto!A2 | .A F2 G- | G.A !tenuto!F2 |[K:treble]"_cresc." (B,/F,/B,) (C/F/C) | %203
 (D/G,/D) (F/A/F) | (A/c/A/c/) (A/c/A/c/) | (^^F/B/F/!f!B/)!>(! (A/G/^F/^E/)!>)! | %206
!mf! .[Ff] [Cc]2 [Ff]- | [Ff].[Gg] !tenuto![Aa]2 | .[Aa] [Ff]2 [Gg]- | [Gg].[Aa] !tenuto![Ff]2 | %210
"_cresc." (^d/A/d) (e/a/e) | (f/B/f) (a/=c'/a) | (c'/e'/c'/e'/) (c'/e'/c'/e'/) | %213
 (^d'/f'/d'/f'/) (e'/c'/a/e/) |!ff! .[aa'] [ee']2 [ff']- | [ff'].[gg'] !tenuto![ee']2 | %216
 .[ff'] [Aa]2 [Bb]- | [Bb] ([^B^b]2 [cc']) | .[dd'] [Aa]2 [Bb]- | [Bb].[cc'] [Gg]2 | %220
 .[Ff] [A,A]2 [B,B]- | [B,B] ([^B,^B]2 [Cc]) |!mf! .F C2 F- | F.G !tenuto!A2 | .A F2 G- | %225
 G.A !tenuto!F2 |[K:treble]"_cresc." (B,/F,/B,) (C/F/C) | (D/G,/D) (F/A/F) | %228
 (A/c/A/c/) (A/c/A/c/) | (^^F/B/F/!f!B/) (A/G/^F/^E/) | .[Ff] [Cc]2 [Ff]- | %231
 [Ff][Gg] !tenuto![Aa]2 | [Aa] [Ff]2 [Gg]- | [Gg][Aa] !tenuto![Ff]2 |"_cresc." (b/f/b) (c'/f'/c') | %235
 (g/d/g) (a/c'/a) | (a/c'/a/c'/) (^B/f/B/f/) | (f/b/f/b/ f)[ff'] |] %238
V:2
 z8 |!mp! [^F,,D,] z [F,,D,] z [E,,G,,]4 | [^F,,D,] z [F,,D,] z [E,,G,,]4 | %3
 .[D,,A,,].[E,,G,,] [E,,G,,]2- .[E,,G,,].[^F,,A,,] (3([E,,G,,][D,,A,,]).[D,,A,,] | %4
 .[D,,A,,].[E,,G,,] [E,,G,,]2- [E,,G,,].[^D,,G,,] .[E,,G,,]/[^F,,B,,]/.[F,,B,,]/.[F,,B,,]/ | %5
 .[^F,,B,,].[E,,C,] [E,,C,]2- [E,,C,].[F,,D,] (3([E,,C,][F,,B,,]).[F,,B,,] | %6
 .[^F,,B,,].[E,,C,] [E,,C,]2- [E,,C,].[E,,B,,] [E,,C,]/.[G,,E,]/.[G,,E,]/.[G,,E,]/ | %7
 .[^F,,D,] z .[E,,C,] z2!mf!"_dim." .[F,,B,,]"^rit.".[E,,A,,].[D,,G,,] | %8
 .[C,,^F,,].[B,,,E,,].[A,,,D,,] z .[D,,G,,].[A,,,D,,] z2 | %9
 .[D,,G,,].[A,,,D,,] z2 .[D,,G,,].[A,,,D,,] z2 | %10
 .[D,,G,,] z .[A,,,D,,] z z2 z/[K:treble] (D/^C/D/) | _E4 D2- D/(D/^C/D/) | _E4 D2- D/(D/^C/D/) | %13
 (_E2 E/)(F/E/F/) (=E2 E/)(^F/E/F/) | (G2 G/)(A/G/A/) (_B2 B/)(B/A/B/) | %15
"_accel." [B,^FB]2 [CGc-]4 c/(c/d/c/) |!p! [B,^FB]2 [CGc-]4 c/(c/d/c/) | %17
!p!!<(! B/.B/.^A/.B/!<)!!>(! (c2!>)!!mf!!<(! B/).B/.A/.B/!<)! c2 | %18
!p! [G,B,][G,B,][G,B,][G,B,] [G,B,][G,B,][G,B,][G,B,] | !/![G,B,]4 !/![G,B,]4 | %20
 !/![G,B,]4 !/![G,B,]4 | !/![G,C]4 !/![G,C]4 | !/![^F,A,]4 [G,B,][B,D][B,D][B,D] | %23
 !/![B,D]4 !/![^A,^C]4 | !/![A,C]4 !/![B,D]4 | !/![B,D]4 !/![G,E]4 | %26
 [^A,^F][A,F][A,F][A,F] F[B,D][B,D][B,D] | !/![B,D]4 !/![B,D]4 | !/![A,^C]4 !/![A,C]4 | %29
 !/![G,B,]4 !/![G,B,]4 | !/![E,A,]4 [^F,A,]F,F,F, | !/!^F,4 !/!=F,4 | !/!E,4 !/!^F,4 | %33
 !/!^F,4 !/![F,B,]4 | !/![^C,^G,]4 [C,^C]^F,,[K:bass] ^F, F,, | .^F,.^F,,.F,.F,, .F,.F,,.F,.F,, | %36
 .^F,.^F,,.F,.F,, .F,.F,,.F,.F,, | .^F,.^F,,.F,.F,, .F,.F,,.F,.F,, | %38
 .^F,.^F,,.F,.F,, .F,.F,,F,F,, | ^F,^F,,F,F,, F,F,,F,F,, | ^F,^F,,F,F,, F,F,,F,F,, | %41
 ^F,^F,,F,F,, F,F,,F,F,, | ^F,^F,,F,F,, z2 .F,,2 | z8 | %44
!mp! [D,^F,][D,F,]/[D,F,]/ [D,F,][D,F,]/[D,F,]/ [G,,E,][G,,E,]/[G,,E,]/ [G,,E,] z | %45
 [D,^F,][D,F,]/[D,F,]/ [D,F,][D,F,]/[D,F,]/ [G,,E,][G,,E,]/[G,,E,]/ [G,,E,] z | %46
 [A,D][G,E]/[G,E]/ [G,E][G,E]/[G,E]/ [G,E]^F/F/ [G,E][A,D]/[A,D]/ | %47
 [A,D][G,E]/[G,E]/ [G,E][G,E]/[G,E]/ [G,E][G,^D]/[G,D]/ ([G,E]/[^F,B,]/)[F,B,]/[F,B,]/ | %48
 [^F,B,][E,C]/[E,C]/ [E,C][E,C]/[E,C]/ [E,C][F,D]/[F,D]/ [E,C][F,B,]/[F,B,]/ | %49
 [^F,B,][E,C]/[E,C]/ [E,C][E,C]/[E,C]/ [E,C][E,B,]/[E,B,]/ [E,C]/[E,G,]/[E,G,]/[E,G,]/ | %50
 !>![D,^F,]!>![C,E,] z/ !>![E,G,]/!>![E,G,]/!>![E,G,]/ !>![D,F,]!>![C,E,] z/ !>![E,G,]/!>![E,G,]/!>![E,G,]/ | %51
 !>![D,^F,]/!>![C,E,]/!>![B,,D,]/!>![A,,C,]/ !>![G,,B,,]/!>![^F,,A,,]/!>![E,,G,,]/!>![D,,F,,]/ !>![C,,E,,]/!>![D,,F,,]/!>![E,,G,,]/!>![G,,B,,]/ !>![F,,A,,] z | %52
!mf! !///![_B,,^C,]4 !>![D,D]!>![D,D] z2 | %53
 ^F z B, z{/D} .C/.B,/A,- A,/4.^G,/4.A,/4.B,/4.C/4.C/4.D/4.E/4 | %54
 .^F z B, z{/D} .C/.B,/A,- A,/4.^G,/4.A,/4.B,/4.C/4.C/4.D/4.E/4 | %55
 .^F.A, A,2- A,{/A,}.^G,/.^^F,/ .G,/4.G,/4.A,/4.B,/4.C/4.C/4.D/4.^D/4 | %56
 .E.G, G,2- G,{/G,}.^F,/.=F,/ .^F,/4.F,/4.G,/4.A,/4._B,/4.B,/4.C/4.^C/4 | %57
 .D.F, F,-F,/4.E,/4.E,/4.A,/4 .D.F, F,-F,/4.E,/4.E,/4.A,/4 | %58
 .C._E, E,-E,/4.D,/4.D,/4.F,/4 .C.E, E,-E,/4.D,/4.D,/4.F,/4 |"_cresc." (_B,2 A,2 _A,2 G,2) | %60
 (^F,2 =F,2) !>!E,!>!_E,!ff! A,2- | A,4 (5:4:5z/4 (_B/4=B/4c/4_d/4(5:4:5=d/4_d/4c/4B/4_B/4) (A2- | %62
 A4- (5:4:5A/4_B/4=B/4c/4_d/4(5:4:5=d/4_d/4c/4B/4_B/4) A2- | A6 (3[A,A][A,A][A,A] | [E,E]8- | %65
 [E,E]4- [E,E] z !fermata!z2 ||[M:3/4] z4!pp! !>!E,2 | z4 !>!E,2 | z4 !>!E,2 | z4 !>!E,2 | z6 | %71
 z6 | z6 | z6 | E,2 z2!pp! !>!E,2 | z2 z2 !>!E,2 | z4 !>!E,2 | z4 !>!E,2 | ([A,C]6 | ([^G,B,]6) | %80
 ([CE]6) | [B,D]6) | (C4 D2) | (^D4 E2) | (C4 D2) | (^D4 E2) | (C4 D2) | (^D4 E2) | (C4 D2) | %89
 ^D2 E z!>(! (7:4:7(E,/F,/G,/A,/B,/C/!>)!=D/) | z4!p! !>!E,2 | z4 !>!E,2 | z4 !>!E,2 | z4 !>!E,2 | %94
 e z z2 g z | z2 a z z2 | c' z z2 ^d' z | z2 e' z !fermata!z2 || %98
[K:A][K:bass] [A,,C,] z [A,,C,] z z2 | [G,,D,] z [G,,D,] z z2 | [A,,C,] z [A,,C,] z z2 | %101
 [B,,D,] z [B,,D,] z z2 | [A,,C,] z [A,,C,] z z2 | [A,,D,] z z2 [A,,D,] z | z2 [B,,D,] z z2 | %105
 [E,,B,,] z z2 [E,,G,,] z | [A,,C,] z [A,,C,] z z2 | [G,,D,] z [G,,D,] z z2 | %108
 [A,,C,] z [A,,C,] z z2 | [^A,,C,] z [A,,C,] z z2 | [A,,D,] z [A,,D,] z z2 | %111
 [A,,^D,] z z2 [B,,F,] z | z2 [G,,B,,] z z2 | ([A,,B,,]4 [G,,B,,]) z | z2 [B,,E,]4- | %115
 [B,,E,]2 [C,E,]4 | [=C,E,]4 [B,,B,]2- | [B,,B,]2 [_B,,_B,]2 [A,,A,]2 | z2 F,,4- | F,,2 =F,,4 | %120
 E,,4 D,,2- | D,,2 _E,,2 =E,,2 | z2 [B,,E,]4- | [B,,E,]2 [C,E,]4 | [=C,E,]4 [B,,B,]2- | %125
 [B,,B,]2 [_B,,_B,]2 [A,,A,]2 | z2 [E,,A,,]4- | [E,,A,,]2 [F,,A,,]4 | [E,,A,,]4 [E,,G,,]2 | %129
 z2 [G,,^D,] z C, z |!mf!!<(! E4 (F2- | F>E) D4 | E4 (F2- | F>E) D4!<)! |!f!!>(! E4 A2- | %135
 A2 (G2 F2) | (E2 D2) (C2 | B,2) (^A,2 B,2)!>)! |!mp! E4 (F2- | F>E) D4 | E4 (F2- | F>E) D4 | %142
 F4 A2- | A2 (C2 G2- | G2) B,2 (F2- | F2- F>E) C z | z2 (B2 c2) | A2- A3/2 z/ z2 | z2 (B2 c2) | %149
 A2- A3/2 z/ z2 | z2 [B,B]2 [Cc]2 | [A,A]2 z4 | z2 [B,B]2 [Cc]2 | [A,A] z z2 !fermata!z2 || %154
[M:2/4] z2 (f2 | F2 f) z | z2 (d2 | D2 d2) | z2 (B2 | F) z (F2 | D) z (D z | B,) z .B, z | z2 (F2 | %163
 F,2 F) z | z2 (D2 | D,2 D) z | z2 (B,2 | F,) z (F,2 | D,) z (D,2 | B,,) z .B,, z | z2!pp! (F,2 | %171
 F,,2 F,) z | z4 | F,, z z2 | z4 | F,, z z2 | z4 | F,, z z2 | F,, F,,2 F,,- | F,, F,,2 F,,- | %180
 F,, F,,2 F,,- | F,, F,,2 F,,- | F,, F,,2 z | F,, F,,2 F,,- | F,, z2 F,,- | F,, F,,2 F,, | %186
 F,, F,,2 F,,- | F,, F,,2 F,,- | F,, F,,2 F,,- | F,, F,,2 F,, | z F,, z F,, | z F,, z F,, | %192
 z F,, z F,, | z F,, z F,, | z F,, z F,, | z F,, z F,, | z F,, z F,, | z C, z F,, | z F,, z F,, | %199
 z F,, z F,, | z F,, z F,, | z F,, z F,, | z F,, z F,, | z F,, z F,, | z F,, z F,, | z B,, z C, | %206
 z F,, z F,, | z F,, z F,, | z F,, z F,, | z F,, z F,, | z A,, z A,, | z A,, z A,, | z A,, z A,, | %213
 z A,, A,, z | A,, z C, z | E, z G, z | A, z D z | F z A z | F z D z | A, z ^E, z | D, z B,, z | %221
 G,, z ^E,, z | z F,, z F,, | z F,, z F,, | z F,, z F,, | z F,, z F,, | z F,, z F,, | z F,, z F,, | %228
 z F,, z F,, | z B,, z C, | z F,, z F,, | z F,, z F,, | z F,, z F,, | z F,, z F,, | z2 (f/c/f) | %235
 z2 (A/c/A) | (f/a/f/a/) ([Ac] z/ a/) | (G/c/G/!ff!c/ F)[FA] |] %238
V:3
 z8 | z8 | z8 | z8 | z8 | z8 | z8 | z8 | z8 | z8 | z8 | %11
!pp! [G,,_B,,][G,,B,,][G,,B,,][G,,B,,] [G,,B,,][G,,B,,][G,,B,,][G,,B,,] | %12
 [G,,_B,,][G,,B,,][G,,B,,][G,,B,,] [G,,B,,][G,,B,,][G,,B,,][G,,B,,] | %13
 (6:4:6[G,,_B,,][G,,B,,][G,,B,,][G,,B,,][G,,B,,][G,,B,,] (6:4:6[G,,B,,][G,,B,,][G,,B,,][G,,B,,][G,,B,,][G,,B,,] | %14
 (6:4:6[G,,B,,][G,,B,,][G,,B,,][G,,B,,][G,,B,,][G,,B,,] (6:4:6[G,,C,][G,,C,][G,,C,][G,,C,][G,,C,][G,,C,] | %15
 z2 z/"_dim." (_B,,/A,,/B,,/) .B,,/(B,,/A,,/B,,/) B,,2 | %16
 B,, z z/"_dim." (_B,,/A,,/B,,/) .B,,/(B,,/A,,/B,,/) B,,2 | %17
 (B,,2 ^A,,/).A,,/.=A,,/.^A,,/ (B,,2 A,,/).A,,/.=A,,/.^A,,/ | B,, z z2 z4 | z8 | z4 z2 .[B,,B,] z | %21
 .E, z (5:4:5(G,/A,/G,/A,/G,/ [E,E]) z .[C,C] z | %22
 (A,,/B,,/A,,/B,,/ (5:4:5A,,/B,,/A,,/B,,/A,,/ [G,,G,]) z z2 | z8 | z8 | z8 | z8 | z8 | %28
 z4 z2 [^F,,^F,] z | [B,,B,] z (5:4:5(D,/E,/D,/E,/D,/ .[B,,B,]) z .[G,,G,] z | %30
 (E,,/^F,,/E,,/F,,/ E,,/F,,/E,,/F,,/ [D,,D,]) z z z | z8 | z8 | z8 | z4 z4 | z8 | z8 | z8 | %38
 z4 z2[K:treble] .^c'/.c'/.c'/.c'/ | %39
 (^f'/e'/).d'/.^c'/ .c'/.c'/.c'/.c'/ (f'/e'/).d'/.c'/ .b/.b/.b/.b/ | %40
 (^f'/e'/).d'/.^c'/ .b/.b/.b/.b/ (f'/e'/).d'/.c'/ .c'/.c'/.c'/.c'/ | %41
 (^f'/e'/).d'/.^c'/ .c'/.c'/.c'/.c'/ (f'/e'/).d'/.c'/ .b/.b/.b/.b/ | %42
 (^f'/e'/).d'/.^c'/ .b/.b/.b/.b/ .[^ff'] z z z | z8 | z8 | z8 | z8 | z8 | z8 | z8 | %50
 z2 [Dd]4 [Dd]2- | [Dd]6- [Dd] z | [^D^d]4[K:bass] !>![A,,A,]!>![A,,A,] z2 | z8 | z8 | z8 | z8 | %57
 z8 | z8 | z4 _B,=B,-B,(C | ^C)D-D(^D E)F z2 | [_E,C] z [D,B,] z z z z2 | [C,E,] z [B,,D,] z z4 | %63
 [A,,D,F,] z [G,,^C,E,] z [^F,,=C,_E,] z [=F,,B,,D,] z | [E,,^C,][E,,C,] z z [E,,=C,][E,,C,] z2 | %65
 [E,,A,,B,,] z [E,,^G,,B,,] z z2 !fermata!z2 ||[M:3/4]!pp! [A,,C,]2 [A,,C,]2 [A,,C,]2 | %67
 [B,,D,]2 [B,,D,]2 [B,,D,]2 | [A,,C,]2 [A,,C,]2 [A,,C,]2 | [B,,D,]2 [B,,D,]2 [B,,D,]2 | %70
 [C,E,]2 [C,E,]2 [C,E,]2 | [B,,D,]2 [B,,D,]2 [B,,D,]2 | [A,,C,]2 [A,,C,]2 [A,,C,]2 | %73
 [^G,,D,]2 [G,,D,]2 [G,,D,]2 |!pp! [A,,C,]2 [A,,C,]2 [A,,C,]2 | [B,,D,]2 [B,,D,]2 [B,,D,]2 | %76
 [A,,C,]2 [A,,C,]2 [A,,C,]2 | [B,,D,]2 [B,,D,]2 [B,,D,]2 | [A,,C,]2 [A,,C,]2 [A,,C,]2 | %79
 [E,,B,,]2 [E,,B,,]2 [E,,B,,]2 | [A,,C,]2 [A,,C,]2 [A,,C,]2 | [E,,B,,]2 [E,,B,,]2 [E,,B,,]2 | %82
 F, z F, z F, z | C, z C, z C, z | F, z F, z F, z | C, z C, z C, z | F, z F, z F, z | %87
 C, z C, z C, z | F, z F, z F, z | C, z C, z z2 | [A,,C,]2 [A,,C,]2 [A,,C,]2 | %91
 [B,,D,]2 [B,,D,]2 [B,,D,]2 | [A,,C,]2 [A,,C,]2 [A,,C,]2 | [B,,D,]2 [B,,D,]2 [B,,D,]2 | %94
!p!!<(! [E,,C,E,] z z2 [G,,E,G,] z | [B,,B,]2 [A,,A,]2 ^G,2 | G,2 ^F,2 =F,2 | %97
 E, z!<)!!ff! E, z !fermata!z2 ||[K:A] z6 | z6 | z6 | z6 | z6 | z6 | z6 | z6 | z6 | z6 | z6 | z6 | %110
 z6 | z6 | z6 | z6 | z6 | z6 | z6 | z6 | z6 | z6 | z6 | z6 | z6 | z6 | z6 | z6 | z6 | z6 | z6 | %129
 z6 | z6 | z2 e2 e' z | z6 | z2 e2 e' z | z6 | z6 | z6 | z6 | z6 | z2 e2 e' z | z6 | z2 f2 f' z | %142
 z6 | z2 a2 a' z | z2 e2 e' z | z2 A2 a z |[K:bass]!pp! .A,, z .E, z .A,, z | .E, z .A,, z .E, z | %148
 .A,, z .E, z .A,, z | .E, z .A,, z .E, z |!pp! .A,, z .E, z .A,, z | .E, z .A,, z .E, z | %152
 .A,, z .E, z .A,, z | .E, z .A,, z !fermata!z2 ||[M:2/4] z4 | z4 | z4 | z4 | z4 | z4 | z4 | z4 | %162
 z4 | z4 | z4 | z4 | z4 | z4 | z4 | z4 | z4 | z4 | z4 | z4 | z4 | z4 | z4 | z4 | z4 | z4 | z4 | %181
 z4 |!pp! [F,,F,]2 [E,,E,]2 | [^D,,^D,]2 [=D,,=D,]2 | [C,,C,]2 [=C,,=C,]2 | [B,,,B,,]2 [A,,,A,,]2 | %186
 [G,,,G,,]2 [A,,,A,,]2 | [B,,,B,,]2 [^B,,,^B,,]2 | [C,,C,][^D,,^D,] [^E,,^E,][F,,F,] | %189
 [=G,,=G,][D,D] [C,C]2 |!p! [F,,F,]2 [E,,E,]2 | [^D,,^D,]2 [=D,,=D,]2 | [C,,C,]2 [=C,,=C,]2 | %193
 [B,,,B,,]2 [A,,,A,,]2 | [G,,,G,,]2 [A,,,A,,]2 | [B,,,B,,]2 [C,,C,]2 | [D,,D,]2 [^D,,^D,]2 | %197
 [^E,,^E,]2 [F,,F,] z |!p! F,2 E,2 | ^D,2 =D,2 | C,2 =C,2 | B,,2 A,,2 | G,,2 A,,2 | B,,2 =C,2 | %204
 C,^D, ^E,F, | =G,[D,D] [C,C] z | [F,F]2 [E,E]2 | [^D,^D]2 [=D,=D]2 | [C,C]2 [=C,=C]2 | %209
 [B,,B,]2 [A,,A,]2 | [_E,_E]2 [=E,=E]2 | [F,F]2 [F,F]2 | [G,G][A,A] [B,B][Cc] | [Dd][^D^d] [Ee] z | %214
!mf! c/d/c/B/ A/G/A/^A/ | B/^A/B/c/ d/c/B/d/ | c/d/c/A/ F/E/D/d/ | ^d/d/d/A/ e/f/e/c/ | %218
 A/G/F/E/ F/E/D/C/ | D/C/B,/A,/ C/D/C/A,/ | A,/B,/C/D/ C/D/B,/C/ | B,/C/A,/B,/ A,/B,/G,/C/ | %222
 F,2 E,2 | ^D,2 =D,2 | C,2 =C,2 | B,,2 A,,2 | G,,2 A,,2 | B,,2 =C,2 | C,^D, ^E,F, | %229
 =G,[D,D] [C,C] z | [F,F]2 [E,E]2 | [^D,^D]2 [=D,=D]2 | [C,C]2 [=C,=C]2 | [B,,B,]2 [A,,A,]2 | %234
 [G,,G,]2 [A,,A,]2 | [B,,B,]2 [C,C]2 | [D,D]2 [E,E]2 | [^E,^E]2 C[C,F,C] |] %238
V:4
 x8 | x8 | x8 | x8 | x8 | x8 | x8 | x8 | x8 | x8 | x8 | x8 | x8 | x8 | x8 | x8 | x8 | x8 | x8 | %19
 x8 | x8 | E z G x z4 | A, x x2 x4 | x8 | x8 | x8 | x8 | x8 | x8 | x2 D x x4 | E, x x2 x4 | x8 | %32
 x8 | x8 | x8 | x8 | x8 | x8 | x6[K:treble] x2 | x8 | x8 | x8 | x8 | x8 | x8 | x8 | x8 | x8 | x8 | %49
 x8 | x8 | x8 | x4[K:bass] x4 | x8 | x8 | x8 | x8 | x8 | x8 | x8 | x8 | x8 | x8 | x8 | x8 | x8 || %66
[M:3/4] x6 | x6 | x6 | x6 | x6 | x6 | x6 | x6 | x6 | x6 | x6 | x6 | x6 | x6 | x6 | x6 | x6 | x6 | %84
 x6 | x6 | x6 | x6 | x6 | x6 | x6 | x6 | x6 | x6 | x6 | x6 | x6 | x6 ||[K:A] x6 | x6 | x6 | x6 | %102
 x6 | x6 | x6 | x6 | x6 | x6 | x6 | x6 | x6 | x6 | x6 | x6 | x6 | x6 | x6 | x6 | x6 | x6 | x6 | %121
 x6 | x6 | x6 | x6 | x6 | x6 | x6 | x6 | x6 | x6 | x6 | x6 | x6 | x6 | x6 | x6 | x6 | x6 | x6 | %140
 x6 | x6 | x6 | x6 | x6 | x6 |[K:bass] x6 | x6 | x6 | x6 | x6 | x6 | x6 | x6 ||[M:2/4] x4 | x4 | %156
 x4 | x4 | x4 | x4 | x4 | x4 | x4 | x4 | x4 | x4 | x4 | x4 | x4 | x4 | x4 | x4 | x4 | x4 | x4 | %175
 x4 | x4 | x4 | x4 | x4 | x4 | x4 | x4 | x4 | x4 | x4 | x4 | x4 | x4 | x4 | x4 | x4 | x4 | x4 | %194
 x4 | x4 | x4 | x4 | x4 | x4 | x4 | x4 | x4 | x4 | x4 | x4 | x4 | x4 | x4 | x4 | x4 | x4 | x4 | %213
 x4 | x4 | x4 | x4 | x4 | x4 | x4 | x4 | x4 | x4 | x4 | x4 | x4 | x4 | x4 | x4 | x4 | x4 | x4 | %232
 x4 | x4 | x4 | x4 | x4 | x4 |] %238
V:5
 x8 | x8 | x8 | x8 | x8 | x8 | x8 | x8 | x8 | x8 | x13/2[K:treble] x3/2 | x8 | x8 | x8 | x8 | x8 | %16
 x8 | x8 | x8 | x8 | x8 | x8 | x8 | x8 | x8 | x8 | x8 | x8 | x8 | x8 | x8 | x8 | x8 | x8 | %34
 z6[K:bass] [A,,^C,]2 | [B,,D,]2 [^C,E,]2 D,2 [B,,D,]2 | [^C,E,]2 D,2 [C,E,]2 [A,,C,]2 | %37
 [B,,D,]2 [^C,E,]2 D,2 [B,,D,]2 | [^C,E,]2 D,2 [C,E,]2 [C,B,]2 | %39
 [^C,E,]2 [B,,D,]2 [^A,,C,]2 [D,^F,]2 | [^C,E,]2 [B,,D,]2 [^A,,C,]2 [D,^F,]2 | %41
 [^C,E,]2 [B,,D,]2 [^A,,C,]2 [D,^F,]2 | [^C,E,]2 [B,,D,]2 x2 ^F,,2 | x8 | x8 | x8 | x8 | x8 | x8 | %49
 x8 | x8 | x8 | x8 | x8 | x8 | x8 | x8 | x8 | x8 | x8 | x8 | x8 | x8 | x8 | x8 | x8 ||[M:3/4] x6 | %67
 x6 | x6 | x6 | x6 | x6 | x6 | x6 | x6 | x6 | x6 | x6 | x6 | x6 | x6 | x6 | x6 | x6 | x6 | x6 | %86
 x6 | x6 | x6 | x6 | x6 | x6 | x6 | x6 | x6 | x6 | x6 | x6 ||[K:A][K:bass] x6 | x6 | x6 | x6 | x6 | %103
 x6 | x6 | x6 | x6 | x6 | x6 | x6 | x6 | x6 | x6 | x6 | x6 | x6 | x6 | x6 | x6 | x6 | x6 | x6 | %122
 x6 | x6 | x6 | x6 | x6 | x6 | x6 | x6 | x6 | x6 | x6 | x6 | x6 | x6 | x6 | x6 | x6 | x6 | x6 | %141
 x6 | x6 | x6 | x6 | x6 | x6 | x6 | x6 | x6 | x6 | x6 | x6 | x6 ||[M:2/4] x4 | x4 | x4 | x4 | x4 | %159
 x4 | x4 | x4 | x4 | x4 | x4 | x4 | x4 | x4 | x4 | x4 | x4 | x4 | x4 | x4 | x4 | x4 | x4 | x4 | %178
 x4 | x4 | x4 | x4 | x4 | x4 | x4 | x4 | x4 | x4 | x4 | x4 | x4 | x4 | x4 | x4 | x4 | x4 | x4 | %197
 x4 | x4 | x4 | x4 | x4 | x4 | x4 | x4 | x4 | x4 | x4 | x4 | x4 | x4 | x4 | x4 | x4 | x4 | x4 | %216
 x4 | x4 | x4 | x4 | x4 | x4 | x4 | x4 | x4 | x4 | x4 | x4 | x4 | x4 | x4 | x4 | x4 | x4 | x4 | %235
 x4 | x4 | x4 |] %238
V:6
 x8 | x8 | x8 | x8 | x8 | x8 | x8 | x8 | x8 | x8 | x8 | x8 | x8 | x8 | x8 | x8 | x8 |[K:bass] x8 | %18
 x4[K:treble] x4 | x8 | x8 | x8 | x8 | x8 | x8 | x8 | x8 | x8 | x8 | x8 | x8 | x8 | x8 | x8 | x8 | %35
 x8 | x8 | x8 | x8 | x8 | x8 | x8 | x8 | x8 | x8 | x8 | x8 | x8 | x8 | x8 | x8 | x8 | x8 | x8 | %54
 x8 | x8 | x8 | x8 | x8 | !//!E2 !//!F2 !//!F2 !//!=G2 | !//!A4 A/A/A/A/ z2 | x8 | x8 | x8 | x8 | %65
 x8 ||[M:3/4] x6 | x6 | x6 | x6 | x6 | x6 | x6 | x6 | x6 | x6 | x6 | x6 | x6 | x6 | x6 | x6 | x6 | %83
 x6 | x6 | x6 | x6 | x6 | x6 | x6 | x6 | x6 | x6 | x6 | x6 | x6 | x6 | x6 ||[K:A] x6 | x4 .e' x | %100
 x6 | x4 .e' x | x6 | x6 | x6 | x6 | x6 | x4 .e' x | x6 | x4 .f' x | x6 | x6 | x6 | x6 | x6 | x6 | %116
 x6 | x6 | x6 | x6 | x6 | x6 | x6 | x6 | x6 | x6 | x6 | x6 | x6 | x6 | x6 | x6 | x6 | x6 | x6 | %135
 x6 | x6 | x6 | x6 | x6 | x6 | x6 | x6 | x6 | x6 | x6 | x6 | x6 | x6 | x6 | x6 | x6 | x6 | x6 || %154
[M:2/4] x4 | x4 | x4 | x4 | x4 | x4 | x4 | x4 | x4 | x4 | x4 | x4 | x4 | x4 | x4 | x4 | x4 | x4 | %172
 x4 | x4 | x4 | x4 | x4 | x4 | x4 | x4 | x4 | x4 | x4 | x4 | x4 | x4 | x4 | x4 | x4 | x4 | x4 | %191
 x4 | x4 | x4 | x4 | x4 | x4 | x4 | x4 | x4 | x4 | x4 |[K:treble] x4 | x4 | x4 | x4 | x4 | x4 | %208
 x4 | x4 | x4 | x4 | x4 | x4 | x4 | x4 | x4 | x4 | x4 | x4 | x4 | x4 | x4 | x4 | x4 | x4 | %226
[K:treble] x4 | x4 | x4 | x4 | x4 | x4 | x4 | x4 | x4 | x4 | x4 | x4 |] %238

